svgs/duotone/file-signature.svg

<svg xmlns="http://www.w3.org/2000/svg" viewBox="0 0 576 512"><!-- Font Awesome Pro 6.0.0-alpha2 by @fontawesome - https://fontawesome.com License - https://fontawesome.com/license (Commercial License) --><defs><style>.fa-secondary{opacity:.4}</style></defs><path d="M256 0H48C21.49 0 0 21.492 0 48V464C0 490.508 21.49 512 48 512H336C362.51 512 384 490.508 384 464V388.812L361.693 411.273C358.689 414.297 354.604 416 350.34 416H256V415.898C239.932 415.613 225.385 406.641 218.125 392.125C215.25 386.25 210.125 385.625 208 385.625S200.75 386.25 197.999 391.75L190.25 407.125C187.625 412.625 181.999 416 176 416H174.875C168.375 415.5 162.875 411.25 160.875 405L144 354.625L133.375 386.5C127.502 404.117 111.016 416 92.445 416H80C71.125 416 64 408.875 64 400S71.125 384 80 384H92.375C97.25 384 101.5 380.875 103 376.375L121.25 321.75C124.5 311.875 133.625 305.25 144 305.25S163.5 311.875 166.75 321.75L180.625 363.375C200.375 347.125 234.75 353.625 246.625 377.5C248.496 381.242 252.16 383.477 256 383.773L288 383.828V353.66C288 349.398 289.701 345.312 292.727 342.305L384 251.664V128H256V0ZM568.5 167.375L536.625 135.5C526.75 125.5 510.625 125.5 500.625 135.5L473.375 162.75L541.25 230.625L568.5 203.375C578.5 193.375 578.5 177.25 568.5 167.375Z" class="fa-secondary"/><path d="M473.375 162.75L292.727 342.305C289.701 345.312 288 349.398 288 353.66V416H350.34C354.604 416 358.689 414.297 361.693 411.273L541.25 230.625L473.375 162.75ZM256 0V128H384L256 0Z" class="fa-primary"/></svg>

<svg xmlns="http://www.w3.org/2000/svg" viewBox="0 0 576 512"><!--! Font Awesome Pro 6.3.0 by @fontawesome - https://fontawesome.com License - https://fontawesome.com/license (Commercial License) Copyright 2023 Fonticons, Inc. --><defs><style>.fa-secondary{opacity:.4}</style></defs><path class="fa-primary" d="M473.4 162.8l-180.6 179.6C289.7 345.3 288 349.4 288 353.7V416h62.34c4.264 0 8.35-1.703 11.35-4.727l179.6-180.6L473.4 162.8zM256 0v128h128L256 0z"/><path class="fa-secondary" d="M256 0H48C21.49 0 0 21.49 0 48v416C0 490.5 21.49 512 48 512h288c26.51 0 48-21.49 48-48v-75.19l-22.31 22.46C358.7 414.3 354.6 416 350.3 416L256 415.9c-16.07-.2852-30.55-9.284-37.81-23.8C215.3 386.3 210.1 385.6 208 385.6s-7.25 .625-10 6.125l-7.749 15.38C187.6 412.6 181.1 416 176 416H174.9c-6.5-.5-12.06-4.75-14.06-11L144 354.6L133.4 386.5C127.5 404.1 110.1 416 92.4 416H80C71.13 416 64 408.9 64 400S71.13 384 80 384h12.38c4.875 0 9.125-3.125 10.62-7.625l18.25-54.63C124.5 311.9 133.6 305.3 144 305.3s19.5 6.625 22.75 16.5l13.88 41.63c19.75-16.25 54.13-9.75 66 14.12C248.5 381.2 252.2 383.5 256 383.8l32 .181v-30.28c0-4.262 1.701-8.348 4.727-11.36L384 251.7V128H256V0zM568.5 167.4L536.6 135.5c-9.875-10-26-10-36 0l-27.25 27.25l67.88 67.88l27.25-27.25C578.5 193.4 578.5 177.3 568.5 167.4z"/></svg>
